world_stage/static/flags/ESP-PV/square.svg

<svg height="560" viewBox="0 0 28 28" width="560" xmlns="http://www.w3.org/2000/svg"><path d="m0 0v28.034377h28v-28.034377z" fill="#d52b1e" stroke-width=".74879"/><g stroke-width="4.3"><path d="m0 0 28 28m0-28-28 28" stroke="#009b48"/><path d="m14 0v28m-14-14h28" stroke="#fff"/></g></svg>

<?xml version="1.0" encoding="UTF-8" standalone="no"?>
<svg
   height="560"
   viewBox="0 0 28 28"
   width="560"
   version="1.1"
   id="svg3"
   sodipodi:docname="square.svg"
   inkscape:version="1.4 (e7c3feb1, 2024-10-09)"
   xmlns:inkscape="http://www.inkscape.org/namespaces/inkscape"
   xmlns:sodipodi="http://sodipodi.sourceforge.net/DTD/sodipodi-0.dtd"
   xmlns="http://www.w3.org/2000/svg"
   xmlns:svg="http://www.w3.org/2000/svg">
  <defs
     id="defs3" />
  <sodipodi:namedview
     id="namedview3"
     pagecolor="#ffffff"
     bordercolor="#000000"
     borderopacity="0.25"
     inkscape:showpageshadow="2"
     inkscape:pageopacity="0.0"
     inkscape:pagecheckerboard="0"
     inkscape:deskcolor="#d1d1d1"
     inkscape:current-layer="svg3" />
  <path
     d="M 0,0 V 28.034377 H 28 V 0 Z"
     fill="#d52b1e"
     stroke-width="0.74879"
     id="path1" />
  <path
     d="M 0,0 28,28 M 28,0 0,28"
     stroke="#009b48"
     id="path2"
     style="stroke-width:4.3"
     sodipodi:nodetypes="cccc" />
  <path
     d="M 14,0 V 28 M 0,14 h 28"
     stroke="#ffffff"
     id="path3"
     style="stroke-width:4.3"
     sodipodi:nodetypes="cccc" />
</svg>
